svg/OSM-icons/shop #ac39ac °ffffff !label=enshops,deLäden/29101;shop=clothes;!name=;!#clothes=lingerie;feature_group=womens_fav_places;[shop];!label=enlingerie,deDessous.svg

<svg xmlns="http://www.w3.org/2000/svg" viewBox="0 0 580 580" enable-background="new 0 0 580 580"><path fill="#111" stroke="#eee" stroke-width="3.408" d="m66.28 1.768c-41.34 0-64.57 21.371-64.57 65.04v450.12c0 40.844 20.895 62.23 62.19 62.23h452.02c41.31 0 62.23-20.315 62.23-62.23v-450.12c0-42.601-20.923-65.04-63.52-65.04-.004 0-448.5-.143-448.35 0z"/><g fill="#fff"><path d="m203.03 143.22l12.192-111.71h-8.587l-17.419 115.19c-22.24 35.01-98.87 171.1 62.04 159.53 0 0 23.884-4.823 34.738-4.823 0-.0001-9.501-88.91-82.966-158.19"/><path d="m390.78 146.7l-17.419-115.19h-8.587l12.191 111.71c-64.964 50.778-82.965 158.19-82.965 158.19 10.854 0 34.738 4.823 34.738 4.823 160.91 11.57 84.28-124.52 62.04-159.53"/><path d="m403.65 410.56c0 0-57.14 7.123-111.55 7.123-54.41 0-115.76-7.123-115.76-7.123h-14.733v32.449c0 0 95.26 20.502 107.09 98.89h42.6c11.828-78.39 107.09-98.89 107.09-98.89v-32.449h-14.734"/><path d="m335 306.24h-83.74c-2.209 0-4-1.791-4-4s1.791-4 4-4h83.74c2.209 0 4 1.791 4 4s-1.791 4-4 4"/></g></svg>

<?xml version="1.0" encoding="utf-8"?>
<!-- Generator: Adobe Illustrator 15.0.0, SVG Export Plug-In . SVG Version: 6.00 Build 0)  -->
<!DOCTYPE svg PUBLIC "-//W3C//DTD SVG 1.1//EN" "http://www.w3.org/Graphics/SVG/1.1/DTD/svg11.dtd">
<svg version="1.1" xmlns="http://www.w3.org/2000/svg" xmlns:xlink="http://www.w3.org/1999/xlink" x="0px" y="0px" width="580px"
	 height="580px" viewBox="0 0 580 580" enable-background="new 0 0 580 580" xml:space="preserve">
<g id="Layer_2">
	<g id="g1327">
		<path id="path1329" fill="#111111" stroke="#EEEEEE" stroke-width="3.408" d="M66.275,1.768
			c-41.335,0-64.571,21.371-64.571,65.036v450.123c0,40.844,20.895,62.229,62.192,62.229H515.92
			c41.307,0,62.229-20.315,62.229-62.229V66.804c0-42.601-20.923-65.036-63.521-65.036C514.624,1.768,66.133,1.625,66.275,1.768z"/>
	</g>
</g>
<g id="svg2" xmlns:rdf="http://www.w3.org/1999/02/22-rdf-syntax-ns#" xmlns:svg="http://www.w3.org/2000/svg" xmlns:sodipodi="http://sodipodi.sourceforge.net/DTD/sodipodi-0.dtd" xmlns:inkscape="http://www.inkscape.org/namespaces/inkscape" xmlns:dc="http://purl.org/dc/elements/1.1/" xmlns:cc="http://creativecommons.org/ns#" sodipodi:version="0.32" inkscape:version="0.46" sodipodi:docbase="s:\Data\FacilityIcons" sodipodi:docname="amenity_atm.svg" inkscape:output_extension="org.inkscape.output.svg.inkscape" display="none">
	
		<sodipodi:namedview  borderopacity="1.0" id="base" objecttolerance="10.0" gridtolerance="10.0" guidetolerance="10.0" inkscape:current-layer="svg2" inkscape:window-y="0" inkscape:window-x="0" inkscape:window-width="1280" inkscape:pageopacity="0.0" inkscape:pageshadow="2" inkscape:window-height="1005" showgrid="false" inkscape:cy="302.63451" inkscape:cx="285.84646" inkscape:zoom="1.3034483" pagecolor="#ffffff" bordercolor="#666666">
		</sodipodi:namedview>
	<defs  display="inline">
		
		
			<inkscape:perspective  id="perspective2441" inkscape:persp3d-origin="290 : 193.33333 : 1" inkscape:vp_z="580 : 290 : 1" inkscape:vp_y="0 : 1000 : 0" inkscape:vp_x="0 : 290 : 1" sodipodi:type="inkscape:persp3d">
			</inkscape:perspective>
	</defs>
	
		<path id="rect3241" sodipodi:nodetypes="ccccccccc" display="inline" opacity="0.75" fill="#FFFFFF" stroke="#FFFFFF" stroke-width="35.845" stroke-linecap="round" stroke-linejoin="round" enable-background="new    " d="
		M103.979,82.413v62.924h112.403c7.778-20.622,12.715-34.171,13.042-36.067l190.991-1.647l14.588,37.714h69.613V82.413H103.979z"/>
	
		<path id="path2443" sodipodi:nodetypes="ccccccc" display="inline" fill="none" stroke="#FFFFFF" stroke-width="20" stroke-linejoin="round" d="
		M227.906,158.094l-40.375,0.375c-1.603,9.296-122.313,358.625-122.313,358.625l403.813-3.406l-15.594-40.313l-333.094,2.844
		C120.344,476.219,195.438,243.832,227.906,158.094z"/>
	
		<path id="path3243" sodipodi:nodetypes="ccccc" display="inline" fill="none" stroke="#FFFFFF" stroke-width="20" stroke-linejoin="round" d="
		M242.694,117.588c-1.603,9.296-122.338,358.618-122.338,358.618l403.838-3.412L401.652,116.069L242.694,117.588z"/>
	
		<path id="path3163" sodipodi:nodetypes="ccccc" display="inline" opacity="0.1" fill="#FFFFFF" stroke="#FFFFFF" stroke-width="20" stroke-linecap="round" stroke-linejoin="round" enable-background="new    " d="
		M242.694,117.588c-1.603,9.296-122.338,358.618-122.338,358.618l403.838-3.412L401.652,116.069L242.694,117.588z"/>
	
		<path id="path3165" sodipodi:nodetypes="ccccccc" display="inline" opacity="0.1" fill="#FFFFFF" stroke="#FFFFFF" stroke-width="20" stroke-linecap="round" stroke-linejoin="round" enable-background="new    " d="
		M227.906,158.094l-40.375,0.375c-1.603,9.296-122.313,358.625-122.313,358.625l403.813-3.406l-15.594-40.313l-333.094,2.844
		C120.344,476.219,195.438,243.832,227.906,158.094z"/>
	<g id="g4372" transform="translate(-130.0802,122.26983)" display="inline">
	</g>
	<g id="g4998" transform="translate(-133.14896,123.86039)" display="inline">
		<g id="g5004">
			<path id="text2413" fill="#FFFFFF" d="M465.402,153.84c0.229,0.097,1.086,0.291,2.572,0.581
				c23.434,3.872,41.037,10.938,52.811,21.199c11.773,10.26,17.661,23.715,17.661,40.364c0,17.036-6.459,31.798-19.376,44.285
				c-12.917,12.487-30.807,19.263-53.669,20.327v26.426h-18.347v-26.135c-23.32-2.227-41.209-8.64-53.669-19.238
				c-12.46-10.6-19.49-25.434-21.09-44.504l30.864-4.646c2.4,14.326,7.259,25.36,14.575,33.104
				c7.315,7.744,17.089,12.148,29.321,13.213V175.62c-23.205-4.26-40.581-11.374-52.126-21.344
				c-11.545-9.97-17.318-22.795-17.318-38.477c0-15.584,5.716-28.966,17.147-40.146s28.863-17.641,52.297-19.384V43.782h18.347
				v12.487c19.433,1.646,34.75,6.873,45.953,15.681c11.202,8.809,18.232,21.15,21.091,37.025l-32.064,3.92
				c-1.829-9.873-5.659-17.689-11.488-23.449c-5.83-5.759-13.66-9.462-23.491-11.107V153.84z M447.055,150.646V78.048
				c-12.46,1.839-22.006,6.074-28.635,12.705c-6.63,6.631-9.945,14.302-9.945,23.014c0,9.971,3.429,17.835,10.288,23.595
				C425.622,143.12,435.052,147.549,447.055,150.646L447.055,150.646z M465.402,258.817c12.003-1.549,21.891-5.977,29.664-13.285
				c7.772-7.309,11.659-16.528,11.659-27.66c0-9.776-2.943-17.641-8.83-23.594c-5.888-5.953-16.719-11.012-32.493-15.174V258.817z"
				/>
		</g>
		
			<path id="path4370" sodipodi:nodetypes="cc" fill="none" stroke="#FFFFFF" stroke-width="30" stroke-linecap="round" stroke-linejoin="round" d="
			M455.376,43.427v265.043"/>
	</g>
</g>
<g id="Layer_4">
	<g>
		<g>
			<path fill="#FFFFFF" d="M203.035,143.222L215.227,31.51h-8.587l-17.419,115.192h0c-22.242,35.012-98.873,171.103,62.042,159.534
				c0,0,23.884-4.823,34.738-4.823C286.001,301.412,276.5,212.5,203.035,143.222z"/>
		</g>
		<g>
			<path fill="#FFFFFF" d="M390.779,146.702L390.779,146.702L373.36,31.51h-8.587l12.191,111.712
				C312,194,293.999,301.412,293.999,301.412c10.854,0,34.738,4.823,34.738,4.823C489.651,317.805,413.021,181.714,390.779,146.702z
				"/>
		</g>
	</g>
	<path fill="#FFFFFF" d="M403.652,410.558c0,0-57.139,7.123-111.548,7.123c-54.41,0-115.757-7.123-115.757-7.123h-14.733v32.449
		c0,0,95.258,20.502,107.086,98.894h42.6c11.828-78.392,107.086-98.894,107.086-98.894v-32.449H403.652z"/>
	<g>
		<path fill="#FFFFFF" d="M335,306.235h-83.737c-2.209,0-4-1.791-4-4s1.791-4,4-4H335c2.209,0,4,1.791,4,4
			S337.209,306.235,335,306.235z"/>
	</g>
</g>
</svg>
